X:1
T:232 - Cristo Ã€ Porta
T:Letra: Fanny Jane Crosby (1820-1915)
T:Trad.: Robert Hawkey Moreton (1844-1917)
T:MÃºsica: Phoebe Palmer Knapp (1839-1908)
L:1/8
M:4/4
Q:1/4=100
K:Abmaj
V:1
 E2 | "Ab"E4- EA GA | "Bbm"B>F B2 B2 A2 | "Eb"G3 A "Eb7"B=A Bc | "Ab"A4- AE Ac | e4- ec AE | "Db"G2 F2 z d cB | "Ab/Eb"A3 c "Eb7"B3 E | "Ab"A4 z2 || E2 | "Eb"G3 A B=A "Eb7"Bc | "Ab"A4 E2 A2 | c3 d ec "Bb7"BA | "Eb"B6 E2 | "Ab"c3 d cB AE | "Db"G2 F2 z d cB | "Ab/Eb"A3 c "Eb7"B3 E | "Ab"A4 z2 |]
w: 1.~Ã€ por_ta cha-mo-te,al-ma tris-te, An-sio-so por te con-so-lar;_ Se mi-nha voz_ en-fim ou-vis-te, Pos-soeu en-trar? Pos-soeu en-trar? Ã€ por-ta por a-mor le-va-do,    Teu mal pro-cu-ro de-be-lar    Ã“ pe-ca-dor de-sa-len-ta-do,    Pos-soeu en-trar? Pos-soeu en-trar? 
w: 2.~Por ti_ foi gran-de meu cas-ti-go. So-fri sem nun-ca mur-mu-rar._ Per-fei-ta paz_ te-rÃ¡s co-mi-go   Pos-soeu en-trar? Pos-soeu en-trar? 
w: 3.~A mi_nha gra-Ã§a po-de-ro-sa O teu pe-ca-do vem la-var;_ Ã“ al-maim-pu_ra, pe-sa-ro-sa, Pos-soeu en-trar? Pos-soeu en-trar? 
w: 4.~Eu vim_ pra dar-te vi-dae go-zo, Que po-des ho-je des-fru-tar;_ Com is-so te_ fa-rei di-to-so   Pos-soeu en-trar? Pos-soeu en-trar?
W: 
W:
W: 1. Ã€ porta chamo-te, alma triste,
W: Ansioso por te consolar;
W: Se minha voz enfim ouviste,
W: Posso eu entrar?
W: Posso eu entrar? 
W: 
W:    (Estribilho)
W:    Ã€ porta por amor levado,
W:    Teu mal procuro debelar
W:    Ã“ pecador desalentado,
W:    Posso eu entrar?
W:    Posso eu entrar? 
W:
W: 2. Por ti foi grande meu castigo.
W: Sofri sem nunca murmurar.
W: Perfeita paz terÃ¡s comigo - 
W: Posso eu entrar?
W: Posso eu entrar? 
W: 
W:
W:
W: 3. A minha graÃ§a poderosa
W: O teu pecado vem lavar;
W: Ã“ alma impura, pesarosa,
W: Posso eu entrar?
W: Posso eu entrar? 
W: 
W: 4. Eu vim pra dar-te vida e gozo,
W: Que podes hoje desfrutar;
W: Com isso te farei ditoso - 
W: Posso eu entrar?
W: Posso eu entrar? 
W: 
W:  

